Newaita-dark/actions/32/tools-media-optical-format.svg

<?xml version="1.0" encoding="UTF-8"?>
<svg xmlns="http://www.w3.org/2000/svg" xmlns:xlink="http://www.w3.org/1999/xlink" width="32pt" height="32pt" viewBox="0 0 32 32" version="1.1">
<g id="surface1">
<path style=" stroke:none;fill-rule:nonzero;fill:rgb(74.117649%,74.117649%,74.117649%);fill-opacity:1;" d="M 15.875 1.574219 C 7.8125 1.574219 1.324219 8.0625 1.324219 16.125 C 1.324219 24.1875 7.8125 30.679688 15.875 30.679688 C 23.9375 30.679688 30.429688 24.1875 30.429688 16.125 C 30.429688 8.0625 23.9375 1.574219 15.875 1.574219 Z M 15.875 3.558594 C 22.839844 3.558594 28.445312 9.164062 28.445312 16.125 C 28.445312 23.089844 22.839844 28.695312 15.875 28.695312 C 8.914062 28.695312 3.308594 23.089844 3.308594 16.125 C 3.308594 9.164062 8.914062 3.558594 15.875 3.558594 Z M 15.875 3.558594 "/>
<path style=" stroke:none;fill-rule:nonzero;fill:rgb(47.058824%,56.470591%,61.176473%);fill-opacity:1;" d="M 15.875 10.835938 C 12.945312 10.835938 10.585938 13.195312 10.585938 16.125 C 10.585938 19.058594 12.945312 21.417969 15.875 21.417969 C 18.808594 21.417969 21.167969 19.058594 21.167969 16.125 C 21.167969 13.195312 18.808594 10.835938 15.875 10.835938 Z M 15.875 13.480469 C 17.34375 13.480469 18.523438 14.660156 18.523438 16.125 C 18.523438 17.59375 17.34375 18.773438 15.875 18.773438 C 14.410156 18.773438 13.230469 17.59375 13.230469 16.125 C 13.230469 14.660156 14.410156 13.480469 15.875 13.480469 Z M 15.875 13.480469 "/>
</g>
</svg>

<svg xmlns="http://www.w3.org/2000/svg" width="32pt" height="32pt" viewBox="0 0 32 32"><path d="M15.875 1.574a14.517 14.517 0 0 0-14.55 14.551 14.52 14.52 0 0 0 14.55 14.555A14.524 14.524 0 0 0 30.43 16.125a14.52 14.52 0 0 0-14.555-14.55zm0 1.985a12.54 12.54 0 0 1 12.57 12.566c0 6.965-5.605 12.57-12.57 12.57a12.54 12.54 0 0 1-12.566-12.57A12.54 12.54 0 0 1 15.875 3.559zm0 0" fill="#bdbdbd"/><path d="M15.875 10.836c-2.93 0-5.29 2.36-5.29 5.289a5.279 5.279 0 0 0 5.29 5.293 5.28 5.28 0 0 0 5.293-5.293c0-2.93-2.36-5.29-5.293-5.29zm0 2.644a2.64 2.64 0 0 1 2.648 2.645 2.64 2.64 0 0 1-2.648 2.648 2.64 2.64 0 0 1-2.645-2.648 2.639 2.639 0 0 1 2.645-2.645zm0 0" fill="#78909c"/></svg>
